brandFactory_export/2.Regular/Rayo _2Regular.svg

<?xml version="1.0" encoding="UTF-8"?>
<svg width="24px" height="24px" viewBox="0 0 24 24" version="1.1" xmlns="http://www.w3.org/2000/svg" xmlns:xlink="http://www.w3.org/1999/xlink">
    <title>2.Regular/Rayo _2Regular</title>
    <g id="Symbols" stroke="none" stroke-width="1" fill="none" fill-rule="evenodd">
        <g id="2.Regular/Rayo-_2Regular" fill="#5CB615" fill-rule="nonzero">
            <path d="M9.85042017,19.8420168 L12.1226891,13.9092437 C12.1966387,13.7109244 12.1865546,13.4890756 12.092437,13.3008403 C11.9983193,13.112605 11.8268908,12.9747899 11.6252101,12.9243697 L7.10420168,11.805042 L14.3647059,4.01008403 L12.1865546,9.53613445 C12.1092437,9.73445378 12.1193277,9.95966387 12.2134454,10.1478992 C12.307563,10.3394958 12.4789916,10.4773109 12.6806723,10.5277311 L17.6554622,11.7546218 L9.85042017,19.8420168 Z M19.7462185,11.1462185 C19.6756303,10.8907563 19.4773109,10.6957983 19.2252101,10.6319328 L13.8235294,9.30084034 L17.087395,1.01512605 C17.2151261,0.68907563 17.1008403,0.312605042 16.8117647,0.121008403 C16.5226891,-0.0705882353 16.1462185,-0.0268907563 15.907563,0.228571429 L5.20840336,11.7142857 C5.0302521,11.902521 4.96638655,12.1781513 5.03697479,12.4302521 C5.10756303,12.6823529 5.30588235,12.8773109 5.55462185,12.9378151 L10.4890756,14.1579832 L7.2487395,22.6184874 C7.12436975,22.9445378 7.23865546,23.3142857 7.52436975,23.502521 C7.64537815,23.5831933 7.77983193,23.6235294 7.91428571,23.6235294 C8.09915966,23.6235294 8.28067227,23.5495798 8.42184874,23.4084034 L19.5647059,11.8655462 C19.7462185,11.6773109 19.8168067,11.4016807 19.7462185,11.1462185 L19.7462185,11.1462185 Z" id="Rayo-_2Regular"></path>
        </g>
    </g>
</svg>

<svg width="24" height="24" viewBox="0 0 24 24" xmlns="http://www.w3.org/2000/svg"><path d="M9.85 19.842l2.273-5.933a.766.766 0 00-.03-.608.72.72 0 00-.468-.377l-4.52-1.119 7.26-7.795-2.178 5.526a.76.76 0 00.026.612c.095.191.266.33.468.38l4.974 1.227-7.805 8.087zm9.896-8.696a.726.726 0 00-.52-.514L13.823 9.3l3.263-8.286a.748.748 0 00-.275-.894.699.699 0 00-.904.108l-10.7 11.485a.752.752 0 00-.171.716c.07.252.269.447.518.508l4.934 1.22-3.24 8.46a.742.742 0 00.275.885.7.7 0 00.898-.095l11.143-11.542a.752.752 0 00.181-.72z" fill="#5CB615" fill-rule="nonzero"/></svg>
